images/types-type-1-3.svg

<svg width="20" height="21" viewBox="0 0 20 21" fill="none" xmlns="http://www.w3.org/2000/svg">
<path d="M8.125 2.375H14.375V17.375H8.125V2.375Z" fill="#3E4347"/>
<path d="M5 1.125H15V2.375H5V1.125Z" fill="#DAE3EA"/>
<path d="M1.25 2.375H4.375V16.75H1.25V2.375Z" fill="#3E4347"/>
<path d="M8.125 16.75H16.875V19.25H8.125V16.75Z" fill="#B2C1C0"/>
<path d="M9.375 16.75H10.625V19.25H9.375V16.75Z" fill="#B4D7EE"/>
<path d="M11.875 16.75H13.125V19.25H11.875V16.75Z" fill="#B4D7EE"/>
<path d="M14.375 16.75H15.625V19.25H14.375V16.75Z" fill="#B4D7EE"/>
<path d="M14.375 13.625H17.5V14.875H14.375V13.625Z" fill="#B4D7EE"/>
<path d="M14.375 10.5H17.5V11.75H14.375V10.5Z" fill="#B4D7EE"/>
<path d="M14.375 7.375H17.5V8.625H14.375V7.375Z" fill="#B4D7EE"/>
<path d="M14.375 4.25H17.5V5.5H14.375V4.25Z" fill="#B4D7EE"/>
<path d="M11.875 13.625H13.125V14.875H11.875V13.625Z" fill="#B4D7EE"/>
<path d="M11.875 10.5H13.125V11.75H11.875V10.5Z" fill="#B4D7EE"/>
<path d="M11.875 7.375H13.125V8.625H11.875V7.375Z" fill="#B4D7EE"/>
<path d="M11.875 4.25H13.125V5.5H11.875V4.25Z" fill="#B4D7EE"/>
<path d="M9.375 13.625H10.625V14.875H9.375V13.625Z" fill="#B4D7EE"/>
<path d="M9.375 10.5H10.625V11.75H9.375V10.5Z" fill="#B4D7EE"/>
<path d="M9.375 7.375H10.625V8.625H9.375V7.375Z" fill="#B4D7EE"/>
<path d="M9.375 4.25H10.625V5.5H9.375V4.25Z" fill="#B4D7EE"/>
<path d="M8.125 14.875H18.125V16.75H8.125V14.875Z" fill="#3E4347"/>
<path d="M8.125 11.75H18.125V13.625H8.125V11.75Z" fill="#3E4347"/>
<path d="M8.125 8.625H18.125V10.5H8.125V8.625Z" fill="#3E4347"/>
<path d="M8.125 5.5H18.125V7.375H8.125V5.5Z" fill="#3E4347"/>
<path d="M8.125 2.375H18.125V4.25H8.125V2.375Z" fill="#3E4347"/>
<path d="M4.375 3H8.125V16.75H4.375V3Z" fill="#B4D7EE"/>
<path d="M1.25 16.75H8.125V19.875H1.25V16.75Z" fill="#B4D7EE"/>
<path d="M0.625 16.125H8.125V16.75H0.625V16.125Z" fill="#DAE3EA"/>
<path d="M4.375 12.375H8.125V13H4.375V12.375Z" fill="#D6EEF0"/>
<path d="M4.375 9.25H8.125V9.875H4.375V9.25Z" fill="#D6EEF0"/>
<path d="M4.375 6.125H8.125V6.75H4.375V6.125Z" fill="#D6EEF0"/>
<path d="M4.375 3.625H8.125V4.25H4.375V3.625Z" fill="#D6EEF0"/>
<path d="M4.375 2.375H8.125V3H4.375V2.375Z" fill="#F5F5F5"/>
<path d="M1.25 16.75H1.875V19.875H1.25V16.75Z" fill="#B2C1C0"/>
<path d="M3.125 16.75H3.53125V19.875H3.125V16.75Z" fill="#F5F5F5"/>
<path d="M3.125 16.75H6.875V17.0937H3.125V16.75Z" fill="#F5F5F5"/>
<path d="M3.125 19.5312H6.875V19.875H3.125V19.5312Z" fill="#F5F5F5"/>
<path d="M4.78125 16.75H5.1875V19.875H4.78125V16.75Z" fill="#F5F5F5"/>
<path d="M6.46875 16.75H6.875V19.875H6.46875V16.75Z" fill="#F5F5F5"/>
<path d="M8.125 18.625H19.375V19.25H8.125V18.625Z" fill="#83BF4F"/>
<path d="M7.5 19.25H19.375V19.875H7.5V19.25Z" fill="#DAE3EA"/>
<path d="M19.0625 18.5625C19.125 18.4687 19.1562 18.3437 19.1562 18.1875C19.1562 17.7812 18.8438 17.4687 18.4375 17.4687H18.4063V17.375C18.4063 17.1875 18.25 17 18.0313 17C17.9375 17 17.875 17.0312 17.8125 17.0937C17.7813 16.8437 17.5312 16.6562 17.2812 16.6562C16.9688 16.6562 16.75 16.9062 16.75 17.2187V17.3438C16.6562 17.2813 16.5313 17.2187 16.4063 17.2187C16.1875 17.2187 16 17.3437 15.9063 17.5312C15.8438 17.5 15.75 17.5 15.6562 17.5C15.25 17.5 14.9375 17.8125 14.9375 18.2188C14.9375 18.375 15 18.5312 15.0938 18.6562C15 18.75 14.9375 18.875 14.9375 19.0312C14.9375 19.3437 15.1875 19.5937 15.4688 19.5937H18.3438C18.4375 19.6875 18.5938 19.75 18.7188 19.75C19.0625 19.75 19.3438 19.4687 19.3438 19.125C19.375 18.875 19.25 18.6875 19.0625 18.5625Z" fill="#83BF4F"/>
<path d="M16.1562 19.125C16.1562 19.3125 16.3125 19.0312 16.5313 19.0312C16.7188 19.0312 16.9062 19.3125 16.9062 19.125C16.9062 18.9375 16.75 18.75 16.5313 18.75C16.3125 18.75 16.1562 18.9375 16.1562 19.125Z" fill="#699635"/>
<path d="M17.2188 18.5C17.2188 18.5937 17.3125 18.5 17.4063 18.5C17.5 18.5 17.5938 18.5937 17.5938 18.5C17.5938 18.4062 17.5 18.3125 17.4063 18.3125C17.3125 18.3125 17.2188 18.375 17.2188 18.5Z" fill="#699635"/>
<path d="M18.5625 19.1563C18.5625 19.25 18.6562 19.1563 18.75 19.1563C18.8437 19.1563 18.9375 19.25 18.9375 19.1563C18.9375 19.0625 18.8437 18.9688 18.75 18.9688C18.6562 19 18.5625 19.0625 18.5625 19.1563Z" fill="#699635"/>
<path d="M17.7812 18C17.7812 18.0937 17.875 17.9688 17.9687 17.9688C18.0625 17.9688 18.1562 18.0937 18.1562 18C18.1562 17.9062 18.0625 17.8125 17.9687 17.8125C17.875 17.8125 17.7812 17.875 17.7812 18Z" fill="#B5F478"/>
<path d="M18.4062 18.5313C18.4062 18.625 18.5 18.5 18.5937 18.5C18.6875 18.5 18.7812 18.625 18.7812 18.5313C18.7812 18.4375 18.6875 18.3438 18.5937 18.3438C18.4687 18.3438 18.4062 18.4063 18.4062 18.5313Z" fill="#B5F478"/>
<path d="M15.375 18.1875C15.375 18.4062 15.5313 18.0625 15.75 18.0625C15.9688 18.0625 16.125 18.375 16.125 18.1875C16.125 18 15.9688 17.8125 15.75 17.8125C15.5313 17.8125 15.375 17.9687 15.375 18.1875Z" fill="#699635"/>
<path d="M15.3438 19.0312C15.3438 19.125 15.4375 19.0312 15.5313 19.0312C15.625 19.0312 15.7188 19.125 15.7188 19.0312C15.7188 18.9375 15.625 18.8438 15.5313 18.8438C15.4375 18.875 15.3438 18.9375 15.3438 19.0312Z" fill="#699635"/>
<path d="M16.9688 17.5937C16.9688 17.7187 17.0625 17.5312 17.2187 17.5312C17.3437 17.5312 17.4688 17.75 17.4688 17.5937C17.4688 17.4687 17.375 17.3438 17.2187 17.3438C17.0937 17.3438 16.9688 17.4375 16.9688 17.5937Z" fill="#B5F478"/>
<path d="M17.6562 19.2188C17.6562 19.3438 17.75 19.1563 17.9062 19.1563C18.0312 19.1563 18.1562 19.375 18.1562 19.2188C18.1562 19.0938 18.0625 18.9688 17.9062 18.9688C17.75 18.9688 17.6562 19.0625 17.6562 19.2188Z" fill="#699635"/>
</svg>

<svg width="20" height="21" fill="none" xmlns="http://www.w3.org/2000/svg"><path d="M8.125 2.375h6.25v15h-6.25v-15z" fill="#3E4347"/><path d="M5 1.125h10v1.25H5v-1.25z" fill="#DAE3EA"/><path d="M1.25 2.375h3.125V16.75H1.25V2.375z" fill="#3E4347"/><path d="M8.125 16.75h8.75v2.5h-8.75v-2.5z" fill="#B2C1C0"/><path d="M9.375 16.75h1.25v2.5h-1.25v-2.5zm2.5 0h1.25v2.5h-1.25v-2.5zm2.5 0h1.25v2.5h-1.25v-2.5zm0-3.125H17.5v1.25h-3.125v-1.25zm0-3.125H17.5v1.25h-3.125V10.5zm0-3.125H17.5v1.25h-3.125v-1.25zm0-3.125H17.5V5.5h-3.125V4.25zm-2.5 9.375h1.25v1.25h-1.25v-1.25zm0-3.125h1.25v1.25h-1.25V10.5zm0-3.125h1.25v1.25h-1.25v-1.25zm0-3.125h1.25V5.5h-1.25V4.25zm-2.5 9.375h1.25v1.25h-1.25v-1.25zm0-3.125h1.25v1.25h-1.25V10.5zm0-3.125h1.25v1.25h-1.25v-1.25zm0-3.125h1.25V5.5h-1.25V4.25z" fill="#B4D7EE"/><path d="M8.125 14.875h10v1.875h-10v-1.875zm0-3.125h10v1.875h-10V11.75zm0-3.125h10V10.5h-10V8.625zm0-3.125h10v1.875h-10V5.5zm0-3.125h10V4.25h-10V2.375z" fill="#3E4347"/><path d="M4.375 3h3.75v13.75h-3.75V3zM1.25 16.75h6.875v3.125H1.25V16.75z" fill="#B4D7EE"/><path d="M.625 16.125h7.5v.625h-7.5v-.625z" fill="#DAE3EA"/><path d="M4.375 12.375h3.75V13h-3.75v-.625zm0-3.125h3.75v.625h-3.75V9.25zm0-3.125h3.75v.625h-3.75v-.625zm0-2.5h3.75v.625h-3.75v-.625z" fill="#D6EEF0"/><path d="M4.375 2.375h3.75V3h-3.75v-.625z" fill="#F5F5F5"/><path d="M1.25 16.75h.625v3.125H1.25V16.75z" fill="#B2C1C0"/><path d="M3.125 16.75h.406v3.125h-.406V16.75z" fill="#F5F5F5"/><path d="M3.125 16.75h3.75v.344h-3.75v-.344zm0 2.781h3.75v.344h-3.75v-.344z" fill="#F5F5F5"/><path d="M4.781 16.75h.407v3.125H4.78V16.75zm1.688 0h.406v3.125h-.406V16.75z" fill="#F5F5F5"/><path d="M8.125 18.625h11.25v.625H8.125v-.625z" fill="#83BF4F"/><path d="M7.5 19.25h11.875v.625H7.5v-.625z" fill="#DAE3EA"/><path d="M19.063 18.563a.667.667 0 00.093-.375.707.707 0 00-.718-.72h-.032v-.093a.38.38 0 00-.375-.375.284.284 0 00-.218.094c-.032-.25-.282-.438-.532-.438-.312 0-.531.25-.531.563v.125a.655.655 0 00-.344-.125.557.557 0 00-.5.312c-.062-.031-.156-.031-.25-.031a.707.707 0 00-.719.719c0 .156.063.312.157.437a.518.518 0 00-.156.375c0 .313.25.563.53.563h2.876c.093.093.25.156.375.156a.627.627 0 00.625-.625c.031-.25-.094-.438-.282-.563z" fill="#83BF4F"/><path d="M16.156 19.125c0 .188.157-.094.375-.094.188 0 .375.282.375.094a.38.38 0 00-.375-.375.38.38 0 00-.375.375zm1.063-.625c0 .094.093 0 .187 0s.188.094.188 0a.202.202 0 00-.188-.188c-.093 0-.187.063-.187.188zm1.344.656c0 .094.093 0 .187 0s.188.094.188 0a.202.202 0 00-.188-.187c-.094.031-.188.093-.188.187z" fill="#699635"/><path d="M17.781 18c0 .094.094-.031.188-.031.093 0 .187.125.187.031a.202.202 0 00-.187-.188c-.094 0-.188.063-.188.188zm.625.531c0 .094.094-.031.188-.031.093 0 .187.125.187.031a.202.202 0 00-.187-.187c-.125 0-.188.062-.188.187z" fill="#B5F478"/><path d="M15.375 18.188c0 .218.156-.125.375-.125s.375.312.375.125a.38.38 0 00-.375-.375.361.361 0 00-.375.375zm-.031.843c0 .094.094 0 .187 0 .094 0 .188.094.188 0a.202.202 0 00-.188-.187c-.094.031-.187.093-.187.187z" fill="#699635"/><path d="M16.969 17.594c0 .125.093-.063.25-.063.125 0 .25.219.25.063a.246.246 0 00-.25-.25.246.246 0 00-.25.25z" fill="#B5F478"/><path d="M17.656 19.219c0 .125.094-.063.25-.063.125 0 .25.219.25.063a.246.246 0 00-.25-.25c-.156 0-.25.093-.25.25z" fill="#699635"/></svg>
